X: 1
T: Seneca Square Dance
T: Waiting for the Federals
N: See also "Georgia Boys", "Got a Little Home to Go To", "John Hoban's Polka"
R: reel
Z: 2011 John Chambers <jc:trillian.mit.edu>
B: Portland Collection v.1 p.179
L: 1/8
M: C|
K: G
A2 \
| "G"B4 BABc | d2B2- B2A2 | "Em"B4 BAB2 | AG-GE G2"(D7)"A2 |
| "G"B4 BABc | d2B2- B2AB | "D7"cBAG FDEF | "G"G6 :|
|: d2 \
| "G"g2ga gfe2 | dB-Bd B2ef | gfef g2a2 | "Em"be-ef e2ef |
| "C"g2ga gfe2 | "G"dB-Bd B2AB | "D7"cBAG FDEF | "G"G6 :|
